frontend/src/assets/images/trophy.svg

<svg xmlns="http://www.w3.org/2000/svg" viewBox="0 0 576 512"><!--!Font Awesome Free 6.7.2 by @fontawesome - https://fontawesome.com License - https://fontawesome.com/license/free Copyright 2025 Fonticons, Inc.--><path d="M400 0L176 0c-26.5 0-48.1 21.8-47.1 48.2c.2 5.3 .4 10.6 .7 15.8L24 64C10.7 64 0 74.7 0 88c0 92.6 33.5 157 78.5 200.7c44.3 43.1 98.3 64.8 138.1 75.8c23.4 6.5 39.4 26 39.4 45.6c0 20.9-17 37.9-37.9 37.9L192 448c-17.7 0-32 14.3-32 32s14.3 32 32 32l192 0c17.7 0 32-14.3 32-32s-14.3-32-32-32l-26.1 0C337 448 320 431 320 410.1c0-19.6 15.9-39.2 39.4-45.6c39.9-11 93.9-32.7 138.2-75.8C542.5 245 576 180.6 576 88c0-13.3-10.7-24-24-24L446.4 64c.3-5.2 .5-10.4 .7-15.8C448.1 21.8 426.5 0 400 0zM48.9 112l84.4 0c9.1 90.1 29.2 150.3 51.9 190.6c-24.9-11-50.8-26.5-73.2-48.3c-32-31.1-58-76-63-142.3zM464.1 254.3c-22.4 21.8-48.3 37.3-73.2 48.3c22.7-40.3 42.8-100.5 51.9-190.6l84.4 0c-5.1 66.3-31.1 111.2-63 142.3z"/></svg>

<svg width="576" height="512" viewBox="0 0 576 512" fill="none" xmlns="http://www.w3.org/2000/svg">
<g clip-path="url(#clip0_448_125)">
<path d="M400 0H176C149.5 0 127.9 21.8 128.9 48.2C129.1 53.5 129.3 58.8 129.6 64H24C10.7 64 0 74.7 0 88C0 180.6 33.5 245 78.5 288.7C122.8 331.8 176.8 353.5 216.6 364.5C240 371 256 390.5 256 410.1C256 431 239 448 218.1 448H192C174.3 448 160 462.3 160 480C160 497.7 174.3 512 192 512H384C401.7 512 416 497.7 416 480C416 462.3 401.7 448 384 448H357.9C337 448 320 431 320 410.1C320 390.5 335.9 370.9 359.4 364.5C399.3 353.5 453.3 331.8 497.6 288.7C542.5 245 576 180.6 576 88C576 74.7 565.3 64 552 64H446.4C446.7 58.8 446.9 53.6 447.1 48.2C448.1 21.8 426.5 0 400 0ZM48.9 112H133.3C142.4 202.1 162.5 262.3 185.2 302.6C160.3 291.6 134.4 276.1 112 254.3C80 223.2 54 178.3 49 112H48.9ZM464.1 254.3C441.7 276.1 415.8 291.6 390.9 302.6C413.6 262.3 433.7 202.1 442.8 112H527.2C522.1 178.3 496.1 223.2 464.2 254.3H464.1Z" fill="#5B64A0"/>
</g>
<defs>
<clipPath id="clip0_448_125">
<rect width="576" height="512" fill="white"/>
</clipPath>
</defs>
</svg>
